svg/emoji_u1f9b7.svg

<?xml version="1.0" encoding="utf-8"?>
<!-- Generator: Adobe Illustrator 24.1.2, SVG Export Plug-In . SVG Version: 6.00 Build 0)  -->
<svg version="1.1" id="Layer_1" xmlns="http://www.w3.org/2000/svg" xmlns:xlink="http://www.w3.org/1999/xlink" x="0px" y="0px"
	 viewBox="0 0 128 128" style="enable-background:new 0 0 128 128;" xml:space="preserve">
<g>
	<path style="fill:#E1E7EA;" d="M53,7.71c0,0-18.09-5.23-24.78,2.14s-7.03,16.07-7.7,21.43s2.34,16.74,4.35,21.76
		s5.36,13.39,5.02,19.42s0.76,21.55,1.34,25.11c1.31,8.04,7.37,22.77,13.73,24.44s8.37-1.34,8.37-7.7s2.01-42.52,13.39-41.18
		c11.38,1.33,10.71,14.72,11.05,21.42c0.33,6.7,3.38,28.41,9.07,27.74s12.69-15.69,13.03-28.41s-3.01-18.41,0-28.12
		s7.7-19.08,7.7-29.13c0-7.8,0.45-20.57-7.37-26.78c-7.1-5.64-12.1-4.21-15.74-4.02C75.38,6.31,70.36,12.72,53,7.71z"/>
	<path style="fill:#95CBDE;" d="M67.15,24.05c4.28,0,19.83-7.54,18-9.46c-2.79-2.93-14.74,3.63-19.2,3.34
		c-4.66-0.3-9.47-2.2-13.97-2.69c-1.55-0.17-3.54,0.33-1.85,2.32C51.36,19,62.87,24.05,67.15,24.05z"/>
	<path style="fill:#FFFFFF;" d="M50.17,24.16c2.26,1.5,4.51,3.39,5.22,6.01c0.1,0.37,0.17,0.77,0.04,1.14
		c-0.12,0.33-0.39,0.59-0.67,0.8c-1.35,1-3.1,1.26-4.78,1.28c-4.75,0.05-9.5-1.62-13.17-4.63c-2.32-1.9-7.57-9.53-1.65-10.3
		C40.06,17.81,46.29,21.6,50.17,24.16z"/>
	<path style="fill:#FFFFFF;" d="M90.95,20.34c1.11-0.35,2.41-0.63,3.37,0.03c0.44,0.3,0.74,0.77,0.95,1.26
		c0.78,1.81,0.4,3.97-0.6,5.67s-2.56,3-4.18,4.13c-2.43,1.68-5.13,3.04-8.03,3.59s-6.03,0.22-8.58-1.27
		c-0.33-0.19-0.66-0.42-0.84-0.75c-0.39-0.73,0.1-1.63,0.72-2.17C78.86,26.42,84.45,22.41,90.95,20.34z"/>
</g>
</svg>

<?xml version="1.0" encoding="UTF-8" standalone="no"?>
<!DOCTYPE svg PUBLIC "-//W3C//DTD SVG 1.1//EN" "http://www.w3.org/Graphics/SVG/1.1/DTD/svg11.dtd">
<svg width="100%" height="100%" viewBox="0 0 128 128" version="1.1" xmlns="http://www.w3.org/2000/svg" xmlns:xlink="http://www.w3.org/1999/xlink" xml:space="preserve" xmlns:serif="http://www.serif.com/" style="fill-rule:evenodd;clip-rule:evenodd;stroke-linejoin:round;stroke-miterlimit:2;">
    <g>
        <path d="M53,7.71C53,7.71 34.91,2.48 28.22,9.85C21.53,17.22 21.19,25.92 20.52,31.28C19.85,36.64 22.86,48.02 24.87,53.04C26.88,58.06 30.23,66.43 29.89,72.46C29.55,78.49 30.65,94.01 31.23,97.57C32.54,105.61 38.6,120.34 44.96,122.01C51.32,123.68 53.33,120.67 53.33,114.31C53.33,107.95 55.34,71.79 66.72,73.13C78.1,74.46 77.43,87.85 77.77,94.55C78.1,101.25 81.15,122.96 86.84,122.29C92.53,121.62 99.53,106.6 99.87,93.88C100.21,81.16 96.86,75.47 99.87,65.76C102.88,56.05 107.57,46.68 107.57,36.63C107.57,28.83 108.02,16.06 100.2,9.85C93.1,4.21 88.1,5.64 84.46,5.83C75.38,6.31 70.36,12.72 53,7.71Z" style="fill:rgb(224,224,224);fill-rule:nonzero;"/>
        <path d="M67.15,24.05C71.43,24.05 86.98,16.51 85.15,14.59C82.36,11.66 70.41,18.22 65.95,17.93C61.29,17.63 56.48,15.73 51.98,15.24C50.43,15.07 48.44,15.57 50.13,17.56C51.36,19 62.87,24.05 67.15,24.05Z" style="fill:rgb(147,177,187);fill-opacity:0.66;fill-rule:nonzero;"/>
        <path d="M50.17,24.16C52.43,25.66 54.68,27.55 55.39,30.17C55.49,30.54 55.56,30.94 55.43,31.31C55.31,31.64 55.04,31.9 54.76,32.11C53.41,33.11 51.66,33.37 49.98,33.39C45.23,33.44 40.48,31.77 36.81,28.76C34.49,26.86 29.24,19.23 35.16,18.46C40.06,17.81 46.29,21.6 50.17,24.16Z" style="fill:white;fill-opacity:0.45;fill-rule:nonzero;"/>
        <path d="M90.95,20.34C92.06,19.99 93.36,19.71 94.32,20.37C94.76,20.67 95.06,21.14 95.27,21.63C96.05,23.44 95.67,25.6 94.67,27.3C93.67,29 92.11,30.3 90.49,31.43C88.06,33.11 85.36,34.47 82.46,35.02C79.56,35.57 76.43,35.24 73.88,33.75C73.55,33.56 73.22,33.33 73.04,33C72.65,32.27 73.14,31.37 73.76,30.83C78.86,26.42 84.45,22.41 90.95,20.34Z" style="fill:white;fill-opacity:0.45;fill-rule:nonzero;"/>
    </g>
</svg>
